X:16
T:Birmingham
S:John Moore's Book 3
Z:Transcribed by Steve Mansfield 05/2021
%%VWML: Moore1-4495-p14-0
F:https://www.vwml.org/record/Moore3/4495/p14
M:C|
L:1/4
K:A
V:1
c2cc | A2c2 | c3c | A2c2 | 
B2e2 | e3G | ABAG | A4 ||
c2cc | A2A2 | e2f2 | e4 | 
!p!c2BA | d2c2 | B2A2 | G2 z2 | 
z4 | z2z!f!E | AAAB | (c/d/c/B/A)A | 
(c/B/c/d/e)f | e3d | Hc4 |] 
V:2
e2ea | a2e2 | e3 a | a2 a2 | 
b3a | g3e | efed | c4 ||
z4 | a2aa | gaba | g4 | 
z4 | z4 | z4 | z4 | 
z4 | z4 | z4 | z2za | b3a | a2g2 | He4 |] 
V:3 
"Air" A2cA | F2G2 | A3e | c2A2 |
w:Come ye that love the lord and let your
d2 c2 | B2B2 | cdcB | A4 ||
w: joys be known and let your joy be known and
A2AA | c2(cA) | (Bcd)c | {c}B4 | 
w:join in a song* of sweet** a-ccord
!p!e2dc | f2e2 | d2c2 | B2zE | 
w:join in a song of sweet a-ccord while
AAAB | (c/d/!f!c/B/A)B | cccd | (e/f/e/d/c) c | 
w:ye sur--round the throne**** while ye sur-round the throne*** while
e3d | c2B2 | HA4 |] 
w:ye surr-ound the throne
V:4 clef=bass middle=d
a2ae | (fde)e | A3e | (fg)a2 | 
b2a2 | e3e | adee | A4 ||
z4 | a2aa | defd | e4 | 
"instr"A2GA | d2dc | B2GA | [Ee]zz2 | 
z2z!f!e | aaae | A4- | A3e | 
(ag)ad | e2e2 | HA4 |] 

